X: 34416
T: Richard Dwyer's
R: reel
M: 4/4
K: Adorian
|:A2 EA cdec|dGBG AEGF|EAcA Bdgf|eaa^g aba=g|
eaed cA A2|Bgdc BcdB|AEcE dEcd|ecBG EA A2:|
|:(3aba ea c'aea|(3gag dg bg d2|(3aba ed cded|cABG EAAa|
ea a2 eac'a|gfge dBGB|A2 Bd eaaf|gedB eA A2:|

